Dominus_Funeral/symbolic/status/non-starred-symbolic.svg

<svg xmlns="http://www.w3.org/2000/svg" width="24" height="24"><path d="M4.81 1.21l2.74 8.2L.49 14.3l8.67-.04L12 22.8l2.86-8.56 8.65-.03-6.99-4.95 2.66-7.97-7.12 4.86zm2.11 2.84l4.15 2.93-2.6 1.8zm10.06 0L15.5 8.53l-2.2-1.56-.22-.15zm-4.9 3.5l3.04 2.13-1.12 3.4H9.9l-1.06-3.2zm4.06 2.84l3.85 2.68h-4.75zm-8.22.15l.84 2.53H4.4zm5.7 3.7l-1.68 5.06-1.66-5.05z" fill="gray" fill-opacity=".3" fill-rule="evenodd"/></svg>

<?xml version="1.0" encoding="UTF-8" standalone="no"?>
<svg
   xmlns:dc="http://purl.org/dc/elements/1.1/"
   xmlns:cc="http://creativecommons.org/ns#"
   xmlns:rdf="http://www.w3.org/1999/02/22-rdf-syntax-ns#"
   xmlns:svg="http://www.w3.org/2000/svg"
   xmlns="http://www.w3.org/2000/svg"
   xmlns:sodipodi="http://sodipodi.sourceforge.net/DTD/sodipodi-0.dtd"
   xmlns:inkscape="http://www.inkscape.org/namespaces/inkscape"
   width="24"
   height="24"
   version="1.1"
   id="svg4"
   sodipodi:docname="non-starred-symbolic.svg"
   inkscape:version="0.92.4 (5da689c313, 2019-01-14)">
  <metadata
     id="metadata10">
    <rdf:RDF>
      <cc:Work
         rdf:about="">
        <dc:format>image/svg+xml</dc:format>
        <dc:type
           rdf:resource="http://purl.org/dc/dcmitype/StillImage" />
        <dc:title></dc:title>
      </cc:Work>
    </rdf:RDF>
  </metadata>
  <defs
     id="defs8" />
  <sodipodi:namedview
     pagecolor="#ffffff"
     bordercolor="#666666"
     borderopacity="1"
     objecttolerance="10"
     gridtolerance="10"
     guidetolerance="10"
     inkscape:pageopacity="0"
     inkscape:pageshadow="2"
     inkscape:window-width="1112"
     inkscape:window-height="480"
     id="namedview6"
     showgrid="false"
     inkscape:zoom="9.8333333"
     inkscape:cx="1.0677966"
     inkscape:cy="12"
     inkscape:window-x="0"
     inkscape:window-y="25"
     inkscape:window-maximized="0"
     inkscape:current-layer="svg4" />
  <path
     d="M 4.81,1.21 7.55,9.41 0.49,14.3 9.16,14.26 12,22.8 14.86,14.24 23.51,14.21 16.52,9.26 19.18,1.29 12.06,6.15 Z m 2.11,2.84 4.15,2.93 -2.6,1.8 z m 10.06,0 L 15.5,8.53 13.3,6.97 13.08,6.82 Z m -4.9,3.5 3.04,2.13 -1.12,3.4 H 9.9 L 8.84,9.88 Z m 4.06,2.84 3.85,2.68 h -4.75 z m -8.22,0.15 0.84,2.53 H 4.4 Z m 5.7,3.7 -1.68,5.06 -1.66,-5.05 z"
     id="path2"
     inkscape:connector-curvature="0"
     style="fill:#808080;fill-opacity:0.3;fill-rule:evenodd" />
</svg>
